!!!!SEGMENT: pl-cz--iii-257--002_gotschalk-filip--requiem-in-b-kyrie.krn
!!!cenid: 18xx:99
!!!COM: Gotschalk, Filip
!!!COM-rismid: pe30020320
!!!CDT: 1760-1809
!!!CNT:
!!!OPR: Requiem in B
!!!OTL: Kyrie
!!!OMV: 002
!!!PDT:
!!!AGN: Sacred; Requiem
!!!SMS-siglum: PL-CZ
!!!SMS-shelfmark: III-257
!!!SMS-shelfwork: 001-002 M
!!!NIFC-rismid:
!!!URL-scan: http://repozytorium.nifc.pl/skany/pl-cz-nut--iii-257
!!!ONB-nifc:
!!!OMD: Andante
!!!AIN: 1 alto 1 bass 2 clars 2 empty 1 organ 1 tenor 2 violn 1 vox
!!!key:
**kern	**fba	**kern	**kern	**kern	**text	**kern	**text	**kern	**text	**kern	**text	**kern	**kern	**kern	**kern
*part11	*	*part10	*part9	*part8	*part8	*part7	*part7	*part6	*part6	*part5	*part5	*part4	*part3	*part2	*part1
*staff11	*	*staff10	*staff9	*staff8	*staff8	*staff7	*staff7	*staff6	*staff6	*staff5	*staff5	*staff4	*staff3	*staff2	*staff1
*Iorgan	*	*Ivioln	*Ivioln	*Ibass	*	*Itenor	*	*Ialto	*	*Ivox	*	*Iempty	*Iempty	*Iclars	*Iclars
*I"Organo	*	*I"Violino Secondo	*I"Violino Primo	*I"Basso	*	*I"Tenore	*	*I"Alto	*	*I"Canto	*	*I"Cornu Secondo in B	*I"Cornu Primo in B	*I"Clarinetto Secondo	*I"Clarinetto Primo
*I'Org	*	*I'Vn II	*I'Vn I	*I'B	*	*I'T	*	*I'A	*	*I'C	*	*I'Cor II	*I'Cor I	*I'Cl II	*I'Cl I
*clefF4	*	*clefG2	*clefG2	*clefF4	*	*clefC4	*	*clefC3	*	*clefC1	*	*clefG2	*clefG2	*clefG2	*clefG2
*	*	*	*	*	*	*	*	*	*	*	*	*ITrd1c2	*ITrd1c2	*	*
*k[b-e-]	*	*k[b-e-]	*k[b-e-]	*k[e-b-]	*	*k[b-e-]	*	*k[b-e-]	*	*k[e-b-]	*	*k[b-e-]	*k[b-e-]	*k[e-b-]	*k[e-b-]
*B-:	*	*B-:	*B-:	*B-:	*	*B-:	*	*B-:	*	*B-:	*	*B-:	*B-:	*B-:	*B-:
*M4/4	*	*M4/4	*M4/4	*M4/4	*	*M4/4	*	*M4/4	*	*M4/4	*	*M4/4	*M4/4	*M4/4	*M4/4
*met(c)	*	*met(c)	*met(c)	*met(c)	*	*met(c)	*	*met(c)	*	*met(c)	*	*met(c)	*met(c)	*met(c)	*met(c)
=1	=1	=1	=1	=1	=1	=1	=1	=1	=1	=1	=1	=1	=1	=1	=1
!	!	!	!	!	!	!	!	!	!	!LO:SIC:v="K" z wyrazu "Kyrie" zapisane przed kluczem	!	!	!	!	!
!LO:TX:a:i:B:t=Andante.	!	!	!	!	!	!	!	!	!	!	!	!LO:TX:a:i:t=Andante	!LO:TX:a:i:t=Andante	!LO:TX:a:i:t=Andante	!LO:TX:a:i:B:t=Andante
*2\right	*	*2\right	*2\right	*2\right	*	*2\right	*	*2\right	*	*2\right	*	*2\right	*2\right	*	*
*	*	*4\right	*4\right	*4\right	*	*4\left	*	*4\right	*	*4\right	*	*4\right	*4\right	*	*
*8\right	*	*8\right	*8\right	*	*	*	*	*8\right	*	*8\right	*	*	*	*	*
*	*	*16\right	*16\right	*	*	*	*	*16\right	*	*16\right	*	*	*	*	*
!	!	!LO:TX:a:i:B:t=andante.	!LO:TX:a:i:t=Andante.	!LO:TX:a:i:B:t=Andante.	!	!LO:TX:a:i:t=Andante	!	!LO:TX:a:i:B:t=Andante.	!	!LO:TX:a:i:B:t=Andante.	!	!	!	!	!
!	!	!	!	!	!	!LO:SIC:v=bemol es przy kluczu oktawę niżej	!	!	!	!	!	!	!	!	!
8BB-L/	.	4d/	4b-\	4B-\	Ky-	4B-\	Ky-	4d\	Ky-	4b-\	Ky-	4d/	4b-\	2f/	4b-\
!LO:TX:t=P:problem=mixed beam	!	!	!	!	!	!	!	!	!	!	!	!	!	!	!
8B-\	.	.	.	.	.	.	.	.	.	.	.	.	.	.	.
!	!	!	!LO:SIC:v=niejednoznaczny zapis przednutki	!	!	!	!	!	!	!	!	!	!	!	!
.	.	.	16qqdd/	.	.	.	.	.	.	.	.	.	.	.	.
8A\	.	4e-/	8cc\L	4A\	-ri-	4F/	-ri-	4e-\	-ri-	8cc\L	-ri-	4f/	4cc\	.	4cc\
8FJ\	.	.	16b-\L	.	.	.	.	.	.	16b-\L	.	.	.	.	.
.	.	.	16cc\JJ	.	.	.	.	.	.	16cc\JJ	.	.	.	.	.
!	!	!	!	!LO:SIC:v=w źródle przekreślona liera "s"	!	!	!	!	!	!	!	!	!	!	!
8B-\L	.	4f/	4dd\	4B-\	-e	4B-\	-e	4f\	-e	4dd\	-e	4b-\	4dd\	4b-\	4dd\
8B-\	.	.	.	.	.	.	.	.	.	.	.	.	.	.	.
.	.	.	16qqff/	.	.	.	.	.	.	.	.	.	.	.	.
8E-\	.	8g/L	8ee-\L	4E-\	e-	4G/	e-	8g\L	e-	8ee-\L	e-	4r	4r	4cc\	4ee-\
8E-\J	.	16f/L	16dd\L	.	.	.	.	8e-\J	.	16dd\L	.	.	.	.	.
.	.	16e-/JJ	16cc\JJ	.	.	.	.	.	.	16cc\JJ	.	.	.	.	.
=2	=2	=2	=2	=2	=2	=2	=2	=2	=2	=2	=2	=2	=2	=2	=2
8FL\	.	4d/	4b-\	2F\	-lei-	2F/	-lei-	(>4d\	-lei-	4b-\	-lei-	4d/	4b-\	8b-\	8dd\
8F\	.	.	.	.	.	.	.	.	.	.	.	.	.	4dd\	4bb-\
!	!	!	!	!	!	!	!	!	!	!	!	!LO:SIC:v=niejednoznaczny zapis przednutki	!	!	!
.	.	.	.	.	.	.	.	.	.	.	.	8qqg/	8qqee-/	.	.
!LO:TX:t=P:problem=mixed beam	!	!	!	!	!	!	!	!	!	!	!	!	!	!	!
8FF/	5 4	16f/LL	(>16dd\LL	.	.	.	.	4e-\)	.	16dd\LL	.	4f/	4cc\	.	.
.	.	16e-/	16cc\	.	.	.	.	.	.	16cc\	.	.	.	.	.
8FFJ/	.	16d/	16b-\	.	.	.	.	.	.	16b-\	.	.	.	8cc\	8aa\
.	.	16e-/JJ	16cc\JJ)	.	.	.	.	.	.	16cc\JJ	.	.	.	.	.
8BB-L/	.	8d/	16b-LL\	4BB-/	-ſon.	4F/	-ſon	4d\	-son.	4b-\	-ſon.	4d/	4b-\	4dd\	4bb-\
!	!	!	!LO:TX:t=P:problem=mixed beam	!	!	!	!	!	!	!	!	!	!	!	!
.	.	.	16f/	.	.	.	.	.	.	.	.	.	.	.	.
!LO:TX:t=P:problem=mixed beam	!	!	!	!	!	!	!	!	!	!	!	!	!	!	!
8B-\	.	8r	16g/	.	.	.	.	.	.	.	.	.	.	.	.
.	.	.	16aJJ/	.	.	.	.	.	.	.	.	.	.	.	.
8F\	.	16r	16b-LL/	4r	.	4r	.	4r	.	4r	.	4r	4r	4r	4r
!	!	!	!LO:TX:t=P:problem=mixed beam	!	!	!	!	!	!	!	!	!	!	!	!
.	.	16b-\LL	16bb-\	.	.	.	.	.	.	.	.	.	.	.	.
8DJ\	.	16f/	16ff\	.	.	.	.	.	.	.	.	.	.	.	.
.	.	16d/JJ	16ddJJ\	.	.	.	.	.	.	.	.	.	.	.	.
=3	=3	=3	=3	=3	=3	=3	=3	=3	=3	=3	=3	=3	=3	=3	=3
!	!	!	!LO:PB:g=original	!	!	!	!	!	!	!	!	!	!	!	!
8BB-L/	.	4b-\	4dd\	2B-\	Chri-	2F/	Chri-	4b-\	Ky-	4dd\	Chri-	4b-\	4dd\	4b-\	4dd\
8B-\	.	.	.	.	.	.	.	.	.	.	.	.	.	.	.
!	!	!	!LO:SIC:v=niejedoznaczny zapis przednutki	!	!	!	!	!	!	!	!	!	!	!	!
.	.	8qqdd/	8qff/	.	.	.	.	.	.	8qqff/	.	.	.	.	.
!LO:TX:t=P:problem=mixed beam	!	!	!	!	!	!	!	!	!	!	!	!	!	!	!
8B-\	4 2	8cc\L	8ee-\L	.	.	.	.	4cc\	-ri-	8ee-\L	-ste	4cc\	4ee-\	4cc\	4ee-\
8B-J\	.	16b-\L	16dd\L	.	.	.	.	.	.	16dd\L	.	.	.	.	.
.	.	16cc\JJ	16ee-\JJ	.	.	.	.	.	.	16ee-\JJ	.	.	.	.	.
!	!	!	!	!	!	!	!	!	!	!LO:PB:g=original	!	!	!	!	!
8B-\L	.	4dd\	4ff\	4B-\	-ste	4F/	-ste	4dd\	-e	4ff\	e-	4dd\	4ff\	4dd\	4ff\
8B-\	.	.	.	.	.	.	.	.	.	.	.	.	.	.	.
8E-\	.	8ee-\L	8gg\L	4E-\	e-	4B-\	e-	8ee-\L	e-	8gg\L	-lei-	4r	4r	8ee-\L	8gg\L
8E-\J	.	16dd\L	16ff\L	.	.	.	.	16dd\L	.	16ff\L	.	.	.	16dd\L	16ff\L
.	.	16cc\JJ	16ee-\JJ	.	.	.	.	16cc\JJ	.	16ee-\JJ	.	.	.	16cc\JJ	16ee-\JJ
=4	=4	=4	=4	=4	=4	=4	=4	=4	=4	=4	=4	=4	=4	=4	=4
!LO:PB:g=origial	!	!LO:PB:g=oiginal	!	!	!	!	!	!LO:PB:g=original	!	!	!	!	!	!	!
8FL\	6 4	4b-\	4dd\	2F\	-lei-	(>4B-\	-lei-	(>4b-\	-lei-	4dd\	.	4b-\	4dd\	4b-\	4dd\
8F\	.	.	.	.	.	.	.	.	.	.	.	.	.	.	.
.	.	.	.	.	.	.	.	.	.	.	.	8qqdd/	8qqff/	.	.
!LO:TX:t=P:problem=mixed beam	!	!	!	!	!	!	!	!	!	!	!	!	!	!	!
8FF/	7 5	(>16dd\LL	(>16ff\LL	.	.	4A\)	.	4cc\)	.	16ff\LL	.	4cc\	4ee-\	16dd\LL	16ff\LL
.	.	16cc\	16ee-\	.	.	.	.	.	.	16ee-\	.	.	.	16cc\	16ee-\
8FFJ/	.	16b-\	16dd\	.	.	.	.	.	.	16dd\	.	.	.	16b-\	16dd\
.	.	16cc\JJ)	16ee-\JJ)	.	.	.	.	.	.	16ee-\JJ	.	.	.	16cc\JJ	16ee-\JJ
!	!	!LO:TX:t=P:problem=mixed beam	!	!	!	!	!	!	!	!	!	!	!	!	!
8BB-L/	.	8b-L\	(>16dd\LL	4BB-/	-ſon	4B-\	-son	4b-\	-son	4dd\	-son	4b-\	4dd\	4b-\	4dd\
.	.	.	16b-\	.	.	.	.	.	.	.	.	.	.	.	.
!LO:TX:t=P:problem=mixed beam	!	!	!	!	!	!	!	!	!	!	!	!	!	!	!
8B-\	.	16dL/	16dd\	.	.	.	.	.	.	.	.	.	.	.	.
.	.	16fJJ/	16ff\JJ)	.	.	.	.	.	.	.	.	.	.	.	.
8F\	.	16b-\LL	(>16bb-\LL	4r	.	4r	.	4r	.	4r	.	4r	4r	4r	4r
.	.	16f/	16ff\	.	.	.	.	.	.	.	.	.	.	.	.
8DJ\	.	16d/	16dd\	.	.	.	.	.	.	.	.	.	.	.	.
.	.	16B-/JJ	16ff\JJ)	.	.	.	.	.	.	.	.	.	.	.	.
=5	=5	=5	=5	=5	=5	=5	=5	=5	=5	=5	=5	=5	=5	=5	=5
!	!	!	!	!LO:PB:g=originals	!	!LO:PB:g=original	!	!	!	!	!	!LO:PB:g=original	!LO:PB:g=original	!	!
*	*	*tremolo	*	*	*	*	*	*	*	*	*	*	*	*	*
8BB-/L	.	8f/L	4dd\	4B-\	Ky-	4d\	Ky-	4f\	Ky-	4dd\	Ky-	4b-\	4dd\	2r	2r
8BB-/	.	8f/	.	.	.	.	.	.	.	.	.	.	.	.	.
8C/	6	8f/	(>16dd\LL	4c\	-ri-	4e-\	-ri-	4f\	-ri-	16dd\LL	.	4f/	4cc\	.	.
.	.	.	16cc\	.	.	.	.	.	.	16cc\	.	.	.	.	.
8C/J	.	8f/J	16b-\	.	.	.	.	.	.	16b-\	-ri-	.	.	.	.
.	.	.	16cc\JJ)	.	.	.	.	.	.	16cc\JJ	.	.	.	.	.
8D\L	6	8f/L	4b-\	4d\	-e	4f\	-e	4f\	-e	4b-\	-e	4d/	4b-\	4r	4r
8BB-/	.	8f/	.	.	.	.	.	.	.	.	.	.	.	.	.
8C/	5-	8f/	(>16b-LL\	4B-\	e-	4d\	e-	4f\	e-	4a-X\	e-	4r	4r	4ff\	4aa-X\
.	.	.	16a-X/	.	.	.	.	.	.	.	.	.	.	.	.
8D\J	.	8f/J	16g/	.	.	.	.	.	.	.	.	.	.	.	.
.	.	.	16a-/JJ)	.	.	.	.	.	.	.	.	.	.	.	.
=6	=6	=6	=6	=6	=6	=6	=6	=6	=6	=6	=6	=6	=6	=6	=6
!	!	!	!LO:PB:g=original	!	!	!	!	!	!	!	!	!	!	!	!LO:PB:g=original
*	*	*Xtremolo	*	*	*	*	*	*	*	*	*	*	*	*	*
8E-\L	.	8B-/L	(<16g/LL	4E-\	-lei-	(>4e-\	-lei-	2b-\	-lei-	(<4g/	-lei-	1r	1r	4ee-\	4gg\
.	.	.	16b-\	.	.	.	.	.	.	.	.	.	.	.	.
8B-\	.	8B-/	16g/	.	.	.	.	.	.	.	.	.	.	.	.
.	.	.	16b-\JJ)	.	.	.	.	.	.	.	.	.	.	.	.
8D\	6 5-	8B-/ 8f/	(<16a-X/LL	4B-\	-ſon	4d\)	.	.	.	4a-X/)	.	.	.	4ff\	4aa-X\
.	.	.	16b-\	.	.	.	.	.	.	.	.	.	.	.	.
8B-\J	.	8B-/J 8f/	16a-/	.	.	.	.	.	.	.	.	.	.	.	.
.	.	.	16b-\JJ)	.	.	.	.	.	.	.	.	.	.	.	.
8E-\L	.	16e-/LL	16gLL/	4E-\	Ky-	4e-\	-ſon	4b-\	-ſon	4g/	-son	.	.	4ee-\	4gg\
.	.	16g/	16b-\	.	.	.	.	.	.	.	.	.	.	.	.
8B-\	.	16a/	16cc\	.	.	.	.	.	.	.	.	.	.	.	.
.	.	16f/JJ	16dd\JJ	.	.	.	.	.	.	.	.	.	.	.	.
8G\	.	4g/	4ee-\	4E-\	-ri-	4e-\	e-	4b-\	e-	4g/	e-	.	.	4r	4r
8E-\J	.	.	.	.	.	.	.	.	.	.	.	.	.	.	.
=7	=7	=7	=7	=7	=7	=7	=7	=7	=7	=7	=7	=7	=7	=7	=7
!	!	!	!	!	!	!	!	!	!	!LO:PB:g=original	!	!	!	!	!
*tremolo	*	*	*	*	*	*	*	*	*	*	*	*	*	*	*
8E-\L	4n 2	16e-/KL 16cc/	(<16an/LL	2e-\	-e	2c\	-lei-	2f\	-lei-	8an\L	-lei-	4f/	4cc\	2r	2r
.	.	8e-/ 8cc/	16f/	.	.	.	.	.	.	.	.	.	.	.	.
8E-\	.	.	16cc\	.	.	.	.	.	.	8cc\J	.	.	.	.	.
.	.	8e-/ 8cc/	16a/JJ)	.	.	.	.	.	.	.	.	.	.	.	.
8E-\	.	.	(<16f/LL	.	.	.	.	.	.	8fL/	.	4f/	4cc\	.	.
.	.	8e-/ 8cc/	16a/	.	.	.	.	.	.	.	.	.	.	.	.
8E-\J	.	.	16cc\	.	.	.	.	.	.	16g\L	.	.	.	.	.
.	.	16e-/Jk 16cc/	16a/JJ)	.	.	.	.	.	.	16a\JJ	.	.	.	.	.
!	!	!LO:PB:g=origial	!	!	!	!	!	!	!	!	!	!	!	!LO:PB:g=original	!
*Xtremolo	*	*	*	*	*	*	*	*	*	*	*	*	*	*	*
8D\L	6	16b-KL/	16b-\LL	4d\	=	4B-\	-son	4f\	-ſon	4b-\	-son	4b-\	4dd\	4r	4r
.	.	8b-\	16dd\	.	.	.	.	.	.	.	.	.	.	.	.
8D\	.	.	16ee-\	.	.	.	.	.	.	.	.	.	.	.	.
.	.	8b-\	16ff\JJ	.	.	.	.	.	.	.	.	.	.	.	.
8E-\	.	.	16gg\LL	4E-\	e-	4B-\	e-	8ee-\L	e-	8gg\L	e-	8r	8r	8g/L	8gg\L
.	.	8b-\	16bb-\	.	.	.	.	.	.	.	.	.	.	.	.
8E-\J	.	.	16gg\	.	.	.	.	8cc\J	.	8ee-\J	.	8cc\	8ee-\	8e-/J	8ee-\J
.	.	16b-\Jk	16ee-\JJ	.	.	.	.	.	.	.	.	.	.	.	.
=8	=8	=8	=8	=8	=8	=8	=8	=8	=8	=8	=8	=8	=8	=8	=8
!LO:PB:g=original	!	!	!LO:PB:g=original	!	!	!	!	!LO:PB:g=original	!	!	!	!	!	!	!
*tremolo	*	*	*	*	*	*	*	*	*	*	*	*	*	*	*
8F\L	6 4	16d/KL 16b-/	(>16dd\LL	1F\	-lei-	(>2d\	-lei-	2b-\	-lei-	2dd\	-lei-	2b-\	2dd\	2b-/	2dd\
.	.	8d/ 8b-/	16ff\	.	.	.	.	.	.	.	.	.	.	.	.
8F\	.	.	16gg\	.	.	.	.	.	.	.	.	.	.	.	.
.	.	8d/ 8b-/	16ff\JJ)	.	.	.	.	.	.	.	.	.	.	.	.
8F\	.	.	(>16ee-\LL	.	.	.	.	.	.	.	.	.	.	.	.
.	.	8d/ 8b-/	16dd\	.	.	.	.	.	.	.	.	.	.	.	.
8F\J	.	.	16cc\	.	.	.	.	.	.	.	.	.	.	.	.
.	.	16d/Jk 16b-/	16b-\JJ)	.	.	.	.	.	.	.	.	.	.	.	.
8F\L	5 3	8f/L 8a/	(>16cc\LL	.	.	2e-\)	.	2a\	.	2cc\	.	2f/	2cc\	2a/	2cc\
.	.	.	16b-\	.	.	.	.	.	.	.	.	.	.	.	.
8F\	.	8f/ 8a/	16cc\	.	.	.	.	.	.	.	.	.	.	.	.
.	.	.	16dd\JJ)	.	.	.	.	.	.	.	.	.	.	.	.
8F\	.	8f/ 8a/	(>16ff\LL	.	.	.	.	.	.	.	.	.	.	.	.
.	.	.	16ee-\	.	.	.	.	.	.	.	.	.	.	.	.
8F\J	.	8f/J 8a/	16cc\	.	.	.	.	.	.	.	.	.	.	.	.
.	.	.	16a/JJ)	.	.	.	.	.	.	.	.	.	.	.	.
=9	=9	=9	=9	=9	=9	=9	=9	=9	=9	=9	=9	=9	=9	=9	=9
.	.	.	4qqa/	.	.	.	.	.	.	.	.	.	.	.	.
*	*	*	*^	*	*	*	*	*	*	*	*	*	*	*	*
2B-\	.	2d/ 2b-/	2b-/	2b-\	2BB-/	-son.	2d\	-ſon.	2f\	-ſon.	2b-\	-son.	2d/	2b-\	2b-/	2b-/
*	*	*	*v	*v	*	*	*	*	*	*	*	*	*	*	*	*
2r	.	2r	2r	2r	.	2r	.	2r	.	2r	.	2r	2r	2r	2r
==	==	==	==	==	==	==	==	==	==	==	==	==	==	==	==
*-	*-	*-	*-	*-	*-	*-	*-	*-	*-	*-	*-	*-	*-	*-	*-
!!!system-decoration: [(s1,s2)][(s3,s4)][(s5,s6,s7,s8)][(s9,s10)][(s11)]
!!!RDF**kern: > = above
!!!RDF**kern: < = below
!!!ENC: Leszek Kubiak
!!!END: 2020-03-23
!!!ENC: Andrzej Kubiczek
!!!END: 2020-02-18
